public/images/logos/inngest.svg

<svg width="164" height="96" viewBox="0 0 164 96" fill="none" xmlns="http://www.w3.org/2000/svg">
<path d="M6.90721 81.1374C4.57461 81.1374 2.41231 79.6524 1.67001 77.3234C-2.23259 65.1014 0.663911 54.8734 10.7893 45.1335L52.0214 5.94052C58.3173 -0.122085 67.1973 -1.67608 75.2012 1.88802C83.1725 5.44002 87.919 13.0203 87.606 21.6904V25.9043C87.606 28.9276 85.1441 31.3736 82.1097 31.3736C79.0753 31.3736 76.6129 28.9235 76.6129 25.9043V21.5854C76.6129 21.5087 76.6129 21.4361 76.6169 21.3634C76.7914 17.1454 74.5845 13.5975 70.7104 11.874C66.8363 10.1504 62.7066 10.873 59.6641 13.8114C59.656 13.8195 59.6439 13.8316 59.6358 13.8397L18.4159 53.0204C11.3816 59.7894 9.56021 65.8804 12.1565 74.0094C13.0774 76.8874 11.4749 79.9634 8.58251 80.8794C8.02681 81.0534 7.46691 81.1374 6.91521 81.1374H6.90721Z" fill="black"/>
<path d="M97.784 95.8624C94.871 95.8624 91.91 95.2404 89.062 93.9734C81.091 90.4214 76.3447 82.8414 76.6571 74.1704V69.9854C76.6571 66.9624 79.1195 64.5164 82.1539 64.5164C85.1883 64.5164 87.651 66.9664 87.651 69.9854V74.2754C87.651 74.3524 87.651 74.4254 87.647 74.5014C87.472 78.7194 89.679 82.2674 93.553 83.9914C97.427 85.7144 101.557 84.9924 104.599 82.0534L145.531 42.8569C152.695 35.9628 154.525 29.9002 151.835 21.9405C150.87 19.0747 152.415 15.9748 155.296 15.0101C158.176 14.0494 161.291 15.5873 162.261 18.4531C166.297 30.4007 163.324 40.9598 153.17 50.7318L112.246 89.9204C108.198 93.8284 103.066 95.8664 97.784 95.8664V95.8624Z" fill="black"/>
<path d="M28.4197 95.7614C25.1662 95.7614 21.9209 95.1754 18.8338 93.9694C18.5336 93.8514 18.2334 93.7304 17.9373 93.6014C15.1463 92.4064 13.8603 89.1894 15.0611 86.4124C16.2619 83.6354 19.4951 82.3564 22.286 83.5514C22.4727 83.6314 22.6592 83.7084 22.8458 83.7814C28.3994 85.9444 34.9266 84.6614 39.892 80.4354C40.1272 80.2214 40.9021 79.4984 41.0075 79.3974L114.985 9.29441C114.985 9.29441 116.575 7.8009 116.92 7.5143C121.95 3.2963 127.662 0.769606 133.439 0.208506C134.664 0.0874064 135.905 0.0511074 137.126 0.0955074C139.856 0.188407 142.85 0.479004 146.104 1.9765C148.858 3.2479 150.059 6.4972 148.781 9.2419C147.503 11.9826 144.238 13.1773 141.479 11.9059C140.076 11.2601 138.68 11.0946 136.737 11.03C135.99 11.0017 135.248 11.026 134.51 11.0986C130.972 11.4417 127.362 13.0805 124.06 15.8373C123.796 16.0754 122.737 17.0603 122.567 17.2177L48.5895 87.3254C48.5895 87.3254 47.3765 88.4634 47.1088 88.6934C41.7012 93.3274 35.0442 95.7614 28.4197 95.7654V95.7614Z" fill="black"/>
</svg>

<svg xmlns="http://www.w3.org/2000/svg" width="164" height="96" fill="none"><path fill="#000" d="M6.907 81.137c-2.332 0-4.495-1.485-5.237-3.814-3.903-12.222-1.006-22.45 9.12-32.19L52.02 5.941C58.316-.122 67.196-1.676 75.2 1.888 83.173 5.44 87.92 13.02 87.606 21.69v4.214c0 3.024-2.462 5.47-5.496 5.47s-5.497-2.45-5.497-5.47v-4.319q-.001-.113.004-.222c.174-4.218-2.032-7.765-5.907-9.489s-8.003-1.001-11.046 1.937l-.028.029-41.22 39.18c-7.034 6.77-8.856 12.86-6.26 20.99.921 2.877-.681 5.953-3.573 6.87a5.6 5.6 0 0 1-1.668.257zm90.877 14.725c-2.913 0-5.874-.622-8.722-1.889-7.971-3.552-12.717-11.132-12.405-19.803v-4.185c0-3.023 2.463-5.469 5.497-5.469s5.497 2.45 5.497 5.47v4.29q.001.113-.004.225c-.175 4.218 2.032 7.766 5.906 9.49 3.874 1.723 8.004 1.001 11.046-1.938l40.932-39.196c7.164-6.894 8.994-12.957 6.304-20.916a5.467 5.467 0 0 1 3.461-6.93c2.88-.962 5.995.576 6.965 3.442 4.036 11.948 1.063 22.507-9.091 32.279L112.246 89.92c-4.048 3.908-9.18 5.946-14.462 5.946zm-69.364-.101a26.3 26.3 0 0 1-10.483-2.16 5.46 5.46 0 0 1-2.876-7.189c1.2-2.777 4.434-4.056 7.225-2.86q.28.12.56.23c5.553 2.162 12.08.88 17.046-3.347.235-.214 1.01-.937 1.115-1.038l73.978-70.103s1.59-1.493 1.935-1.78C121.95 3.296 127.662.77 133.439.21a27.5 27.5 0 0 1 3.687-.113c2.73.092 5.724.383 8.978 1.88 2.754 1.272 3.955 4.521 2.677 7.266-1.278 2.74-4.543 3.935-7.302 2.664-1.403-.646-2.799-.811-4.742-.876a16 16 0 0 0-2.227.069c-3.538.343-7.148 1.982-10.45 4.738-.264.238-1.323 1.223-1.493 1.38L48.59 87.326s-1.214 1.138-1.481 1.368c-5.408 4.634-12.065 7.068-18.69 7.072z"/></svg>
